images/smedia/google.svg

<svg width="50" height="50" viewBox="0 0 50 50" fill="none" xmlns="http://www.w3.org/2000/svg">
<circle cx="25" cy="25" r="24" fill="#ECF6FF" stroke="#101C5B"/>
<path d="M30.6319 20.2724C29.3628 19.0833 27.7487 18.4778 25.951 18.4778C22.7617 18.4778 20.0623 20.5887 19.0994 23.4251C18.8545 24.1451 18.7153 24.9142 18.7153 25.7051C18.7153 26.496 18.8545 27.2651 19.0994 27.9851C20.0623 30.8214 22.7617 32.9323 25.951 32.9323C27.5985 32.9323 29.0011 32.5069 30.0975 31.7869C31.3944 30.936 32.2571 29.6651 32.5409 28.1651H25.951V23.5233H37.4834C37.6281 24.3087 37.7061 25.1269 37.7061 25.9778C37.7061 29.6324 36.3702 32.7088 34.0548 34.7979C32.0289 36.6306 29.257 37.7051 25.951 37.7051C21.1643 37.7051 17.0233 35.016 15.0085 31.0942C14.1792 29.4742 13.7061 27.6415 13.7061 25.7051C13.7061 23.7688 14.1792 21.936 15.0085 20.316C17.0233 16.3942 21.1643 13.7051 25.951 13.7051C29.2515 13.7051 32.0233 14.8942 34.1439 16.8305L30.6319 20.2724Z" fill="#101C5B"/>
</svg>

<svg width="50" height="50" fill="none" xmlns="http://www.w3.org/2000/svg"><circle cx="25" cy="25" r="24" fill="#ECF6FF" stroke="#101C5B"/><path d="M30.632 20.272c-1.27-1.189-2.883-1.794-4.681-1.794-3.19 0-5.889 2.11-6.852 4.947a7.083 7.083 0 00-.384 2.28c0 .791.14 1.56.384 2.28.963 2.836 3.663 4.947 6.852 4.947 1.648 0 3.05-.425 4.146-1.145 1.297-.851 2.16-2.122 2.444-3.622h-6.59v-4.642h11.532c.145.786.223 1.604.223 2.455 0 3.654-1.336 6.73-3.651 8.82-2.026 1.833-4.798 2.907-8.104 2.907-4.787 0-8.928-2.689-10.943-6.61a11.8 11.8 0 010-10.779c2.015-3.922 6.156-6.61 10.943-6.61 3.3 0 6.072 1.188 8.193 3.125l-3.512 3.441z" fill="#101C5B"/></svg>
